X:1
T:Lieder und Gesänge, Op.59
T:Auf dem See
T:8 Lieder und Gesänge, Op.59
T:2. Auf dem See
T:Johannes Brahms
T:Carl Simrock
T:Creative Commons copyright waiver (CC0 1.0 Universal)
T:Creative Commons copyright waiver (CC0 1.0 Universal)
T:Creative Commons copyright waiver (CC0 1.0 Universal)
T:Creative Commons copyright waiver (CC0 1.0 Universal)
C:Johannes Brahms
Z:Carl Simrock
Z:Creative Commons copyright waiver (CC0 1.0 Universal)
%%score 1 { ( 2 5 ) | ( 3 4 ) }
L:1/8
Q:1/4=130
M:3/4
K:E
V:1 treble nm="Singstimme\nVoice"
V:2 treble nm="Pianoforte"
V:5 treble 
V:3 bass 
V:4 bass 
V:1
"^Etwas bewegt" z2 | z6 | z6 | z6 | z6 | z6 | z6 | z6 | z6 |:!mp! (B2 G2) E2 | (E2 D2) F2 | %11
w: |||||||||1. Blau- * er|Him- * mel,|
w: |||||||||2. Wie _ der|Kahn _ uns|
 (B2 G2) E2 | (G2 F2) B2 | (e2 B2) d2 | (c2 B2) G2 | (^A2 B2) c2 | (B4 F2) |!p! F4 F2 | F4 z2 | %19
w: blau- * e|Wo- * gen,|Re- * ben-|hü- * gel|um _ den|See, _|um den|See,|
w: hebt _ und|wie- * get,|leich- * ter|Ne- * bel|steigt _ und|fällt, _|steigt und|fällt,|
 B4 B2 | c4 B2 | A4 A2 | B4 A2 | (A2 G2) F2 | (G2 A2) B2 | (c2 d2) e2 | (e4 B2) | (d2 c2) B2 | %28
w: drü- ber|blau- er|Ber- ge|Bo- gen|schim- * mernd|weiss _ im|rei- * nen|Schnee, _|schim- * mernd|
w: sü- sser|Him- mels-|frie- de|lie- get|ü- * ber|der _ be-|glänz- * ten|Welt _|ü- * ber|
 (^A2 B2) E2 | (=A2 G2) F2 | E4 z2 | z6 | z6 :| F4 B2 | =c4 A2 | F4 A2 | f4 e2 | (d2 B2) =c2 | %38
w: weiss _ im|rei- * nen|Schnee.|||Stür- mend|Herz, tu|auf die|Au- gen,|sieh _ um-|
w: der _ be-|glänz- * ten|Welt.||||||||
 (B2 D2) E2 | (F6- | F2 =G2) E2 | B4 z2 | z6 | e6- | e2 _e4 | =d6- | d3 =c B A | A2 =G2 z2 | %48
w: her _ und|wer-|* * de|mild;||Glück|_ und|Frie-|* den magst du|sau- gen|
w: ||||||||||
 z2 =G2 G2 | B4 =G2 | =c4 F2 | B4 z2 | z2!ff! B2 B2 | ^d4 B2 | e4 ^A2 | B4 z2 | z6 | z6 | z6 | %59
w: aus des|Dop- pel-|him- mels|Bild,|aus des|Dop- pel-|him- mels|Bild.||||
w: |||||||||||
!mp! (B2 G2) E2 | (E2 D2) F2 | (B2 cB) (GE) | (G2 F2) B2 | (e2 B2) d2 | (c2 B2) G2 | (^A2 B2) c2 | %66
w: Spie- * gelnd|sie _ die|Flut _ _ er- *|wi- * dern|Turm _ und|Hü- * gel,|Busch * und|
w: |||||||
 (B4 F2) | F4 F2 | F4 z2 | B4 B2 | c4 B2 | A4 A2 | B4 A2 | (A2 G2) F2 | (G2 A2) B2 | (c2 d2) e2 | %76
w: Stadt, _|Busch und|Stadt,|al- so|spieg- le|du in|Lie- dern|was _ die|Er- * de|Schön- * stes|
w: ||||||||||
 (e4 B2) | (d2 c2) B2 | (^A2 B2) E2 | (=A2 G2) F2 | E4 z2 | z6 | z6 | z6 | z2 z2 |] %85
w: hat, _|was _ die|Er- * de|Schön- * stes|hat.|||||
w: |||||||||
V:2
 [G,B,]2 | [G,B,]4!<(! ([G,B,]>E)!<)! |!>(! [A,B,F]4!>)! [A,D]2 | [G,B,]4!<(! ([G,B,]>E)!<)! | %4
!>(! [A,B,DB]4!>)! [A,B,DF]2 | ([G,B,]2 [EG]2)!<(! ([A,D]2 | [FA]2) [B,E]2 ([EB]>e)!<)! | %7
!>(! (c4 ^A2) | (=G2 F2 E2)!>)! |: [^G,B,]4 ([G,B,]>E) | [A,B,F]4 [A,D]2 | [G,B,]4 ([G,B,]>E) | %12
 [A,B,DB]4 [A,B,DF]2 | ([G,B,]2 [EG]2) ([A,D]2 | [FA]2) [B,E]2 ([EB]>e) |!p!!>(! [E^Ac]4 ([EA]>c) | %16
 [DF]4!>)!!pp! ([B,D]>F-) |!p! F6 | (F4 B,2) | (D2 E2 F2) | E4 E2 | (C2 D2 E2) | D4 D2 | %23
 z2 (D>A d2) | z2 (E>G e2) | z2 (C>E c2) | z2 (B,>E B2) | z2 (C>E =G2) | (^A,>C E2) x2 | D6 | %30
 (E4 B,2) |[K:bass]!pp!!>(! B,4 B,2 | B,4 B,2!>)! :|[K:treble] z2 z2 ([DF]>B) | [DF=c]4 A2 | %35
 [DF]4 ([DF]>A) | !arpeggio![EAf]6 | z2 (3DFB z2 | (3B,DF z2 (3=G,B,E | z2 F4 |"^sim." z2 =G4 | %41
 z2 B2 z2 | B2 z2 =c2 | z2 =c4 | z2 A4 | z2 B4 | z2 A4 | z2 =G4 | z2 =G4 | z2 =G4 | z2 F4 | %51
 z2 [AB]2 z2 | [=G^c]2 z2 [B=d]2 | z2 [B^d]4 | z2 [cf]4 | z2 ([df]2 [Bd]2) | z2 ([=Ac]2 [FA]2) | %57
!f!!>(! z2 [DF]2 z2 | [B,D]2 z2!>)!!mp! [A,C]2 | [G,B,]4 ([G,B,]>E) | [A,B,F]4 [A,D]2 | %61
 [G,B,]4 ([G,B,]>E) | [A,B,DB]4 [A,B,DF]2 | ([G,B,]2 [EG]2) ([A,D]2 | [FA]2) ([B,E]2 [EB]>e) | %65
 [E^Ac]4 ([EA]>c) | [DF]4 ([B,D]>F-) |!p! F6 | (F4 B,2) | (D2 E2 F2) | E4 E2 | (C2 D2 E2) | D4 D2 | %73
 z2 (D>A d2) | z2 (E>G e2) | z2 (C>E c2) | z2 (B,>E B2) | z2 (C>E =G2) | (^A,>C E2) x2 | D4 D2 | %80
 (E4 B,2) |[K:bass] B,4 B,2 | B,4 B,2 | B,6- | B,4 |] %85
V:3
!p! z2 | (E,,>B,, E,2 B,,2) | (E,,>B,, F,2 B,,2) | (E,,>B,, E,2 B,,2) | (E,,>B,, F,2 B,,2) | %5
 (E,,>B,, E,2) (F,,>A,, | D,2) (G,,>E, G,2) | (A,,>E, =G,4) | (E,,>B,, E,2 ^A,,2) |: %9
!p! (E,,>B,, E,2 B,,2) | (E,,>B,, F,2 B,,2) | (E,,>B,, E,2 B,,2) | (E,,>B,, F,2 B,,2) | %13
 (E,,>B,, E,2) (F,,>A,, | D,2) (G,,>E, G,2) | (F,,>E, F,4) | (F,,>D, F,4) | (F,,>E, F,4) | %18
 (B,,,>F,, B,,2 D,2) | (G,,>D, G,2 D,2) | (C,,>G,, C,2 C,,2) | A,4 A,2 | (A,2 G,2 F,2) | %23
 (B,,>A,- B,4) | (B,,>G,- B,4) | (A,,>E,- A,4) | (G,,>E,- G,4) | (A,,>E, =G,2) (C,>E, | %28
 =G,2) (B,,>E,[I:staff -1] ^G,>B,) |[I:staff +1] (B,,,>A,, B,,4) | (B,,,>A,, B,,4) | %31
 (B,,,>A,, B,,2 A,,2) | (B,,,>A,, B,,2 A,,2) :|!p! (3(B,,,A,,B,, (3D,F,B,)!<(! z2!<)! | %34
"^sim."!>(! (3(A,,,A,,=C,!>)! (3D,F,=C) z2 |"^Sim." (3(B,,,A,,B,, (3D,F,B,)!<(! z2!<)! | %36
!>(! (3(=C,,A,,=C,!>)! (3E,F,A,) z2 | (3B,,A,B,!>(! z2 (3A,,D,F, | z2 (3=G,,B,,E, z2!>)! | %39
 (3(F,,C,F,) z2 z2 | (3(E,,C,E,) z2 z2 | (3(B,,F,B,)!pp!!<(! z2 (3(B,,A,B,) | %42
 z2 (3(B,,=G,B,)!<)!!mf! z2 | (3(=A,,=G,A,) z2 z2 | (3(=C,=G,A,) z2 z2 | (3(=D,=G,B,) z2 z2 | %46
 (3(=D,,=C,=D,) z2 z2 | (3(E,,B,,E,) z2 z2 | (3(=D,,=G,,=D,) z2 z2 | (3(^C,,E,,^C,) z2 z2 | %50
 (3(=D,,A,,=D,) z2 z2 | (3^D,,B,,^D,!f!!<(! z2 (3E,,B,,E, | z2 (3^E,,B,,^E,!<)!!ff! z2 | %53
 (3F,,B,,F, z2 z2 | (3(F,^A,E) z2 z2 |!f! (3(B,,F,D) z2 z2 | (3(B,,=A,B,) z2 z2 | %57
 B,,,B,, z2 B,,,B,, | F,A, z2 D,F, |!p! (E,,>B,, E,2!<(! B,,2)!<)! |!>(! (E,,>B,,!>)! F,2 B,,2) | %61
 (E,,>B,, E,2!<(! B,,2)!<)! |!>(! (E,,>B,,!>)! F,2 B,,2) | (E,,>B,, E,2) (F,,>A,, | %64
 D,2) (G,,>E, G,2) |!p!!>(! (F,,>E, F,4) | (F,,>E, F,4)!>)! | (F,,>E, F,4) | (B,,,>F,, B,,2 D,2) | %69
 (G,,>D, G,2 D,2) | (C,,>G,, C,2 C,,2) | A,4 A,2 | (A,2 G,2 F,2) | (B,,>A,- B,4) | %74
 (B,,>G,-!<(! B,4) | (A,,>E,- A,4) | (G,,>E,- G,4)!<)! |!p! (A,,>E, =G,2) (C,>E, | %78
 =G,2) (B,,>E,[I:staff -1] ^G,>B,) |[I:staff +1] (B,,,>A,, B,,4) | (B,,,>A,, B,,4) | %81
!>(! (B,,,>A,, B,,2 A,,2)!>)! |!p!!>(! (B,,,>A,, B,,2 A,,2)!>)! |!pp! [A,,B,,]6 | [G,,B,,]4 |] %85
V:4
 x2 | E,,4 E,,2 | E,,4 E,,2 | E,,4 E,,2 | E,,4 E,,2 | E,,4 F,,2- | F,,2 G,,4 | ^A,,4 C,2 | %8
 E,,4 E,,2 |: E,,4 E,,2 | E,,4 E,,2 | E,,4 E,,2 | E,,4 E,,2 | E,,4 F,,2- | F,,2 G,,4 | F,,6 | %16
 F,,6 | F,,6 | x6 | x6 | x6 | (F,,>C, F,2 C,2) | (B,,,>F,, B,,2 B,,,2) | B,,2- [B,,A,]4 | %24
 B,,2- [B,,G,]4 | A,,2- [A,,E,]4 | G,,2- [G,,E,]4 | ^A,,4 C,2- | C,2 B,,4 | B,,,4 B,,,2 | %30
 B,,,4 B,,,2 | B,,,4 B,,,2 | B,,,4 B,,,2 :| x6 | x6 | x6 | x6 | x6 | x6 | x6 | x6 | x6 | x6 | x6 | %44
 x6 | x6 | x6 | x6 | x6 | x6 | x6 | x6 | x6 | x6 | x6 | x6 | x6 | x6 | z2 B,,,B,, z2 | E,,4 E,,2 | %60
 E,,4 E,,2 | E,,4 E,,2 | E,,4 E,,2 | E,,4 F,,2- | F,,2 G,,4 | F,,6 | F,,6 | F,,6 | x6 | x6 | x6 | %71
 (F,,>C, F,2 C,2) | (B,,,>F,, B,,2 B,,,2) | B,,2- [B,,A,]4 | B,,2- [B,,G,]4 | A,,2- [A,,E,]4 | %76
 G,,2- [G,,E,]4 | ^A,,4 C,2- | C,2 B,,4 | B,,,4 B,,,2 | B,,,4 B,,,2 | B,,,4 B,,,2 | B,,,4 B,,,2 | %83
 E,,6 | E,,4 |] %85
V:5
 x2 | x6 | x6 | x6 | x6 | x6 | x6 | [E=G]6 | [^A,C]4 [=G,C]2 |: x6 | x6 | x6 | x6 | x6 | x6 | x6 | %16
 x6 | ([^A,C]2 [B,D]2 [CE]2) | [B,D]4 B,2 | B,4 B,2 | (B,2 A,2 G,2) | x6 | x6 | x6 | x6 | x6 | x6 | %27
 x6 | x6 | (C2 B,2 A,2) | G,6 |[K:bass] ([F,A,]2 [E,G,]2 [D,F,]2) | ([F,A,]2 [E,G,]2 [D,F,]2) :| %33
[K:treble] x6 | x4 (F>E) | x6 | x6 | x6 | x6 | x2 (6:4:6(B,CB,CB,C) | x2 (6:4:6(^A,CA,CA,C) | %41
 z2 (3(DFD) z2 | (3(DFD) z2 (3(E=GE) | x2 (6:4:6(E=GEGEG) | x2 (6:4:6(_E=GEGEG) | %45
 x2 (6:4:6(=D=GDGDG) | x2 (6:4:6(=CFCFCF) | x2 (6:4:6(B,EB,EB,E) | x2 (6:4:6(B,EB,EB,E) | %49
 x2 (6:4:6(B,EB,EB,E) | x2 (6:4:6(^B,=DB,DB,D) | x2 (3B,FB, x2 | (3^CEC x2 (3=D^GD | %53
 x2 (6:4:6^DFDFDF | x2 (6:4:6(F^AFAFA) | x2 (6:4:6(FBFBFB) | x2 (6:4:6(EFEFEF) | x2 A,B, x2 | x6 | %59
 x6 | x6 | x6 | x6 | x6 | x6 | x6 | x6 | ([^A,C]2 [B,D]2 [CE]2) | [B,D]4 B,2 | B,4 B,2 | %70
 (B,2 A,2 G,2) | x6 | x6 | x6 | x6 | x6 | x6 | x6 | x6 | (C2 B,2 A,2) | G,6 | %81
[K:bass] ([F,A,]2 [E,G,]2 [D,F,]2) | ([F,A,]2 [E,G,]2 [D,F,]2) | [D,F,]6 | E,4 |] %85

